X: 280
T: the Silver Crown
B: O'Neill's 280
N: "With spirit"
N: "Collected by F.O'Neill"
Z: 1997 by John Chambers <jc@trillian.mit.edu>
M: 6/8
L: 1/8
K:G
(G/A/) \
| B2A (GBd) | g2e d2(B/d/) | g2e (dBG) | A2E F2(G/A/) |
| B2A (GBd) | g2e d2e | dBG A2d | G3 G2 ||
|| ((3d/e/f) \
| g2f (efg) | (a>gf/e/) d2d | e(dc/B/) c(de/f/) | g2a Hb2a |
| g(fe/d/) (c/d/e).f | egB A2D | G2A BcA | G3 G2 ||


